X: 4399
M: 3/4
L: 1/4
K: G
!p!B |\
(TB^A)B | (TB^A)B | dzd | (d2B) |\
(TB^A)B | (gB)e | ezd | (d2A) |\
(TA^G)A | edc | BzB | B2B |\
(A^G)A | (ba)^c |[1 d3- | d(^c=c) :|[2 d3- | d!f!b>b ||
|:\
(b2e-) | ea>a | (a2d-) | da>g |\
g2f- | f^e>f | (c'2b-) | bc'>b |\
(b2e-) | eb>a | (a2d-) | da>g |\
(g2f-) | fb>a |[1 gz/gg | zbb :|[2 g3- | g"_D.C."z ||
|: b |\
bze | eza | azd | dzg |\
gzf | ezd | dzc' | bzb |\
bze | eza | azd | dzg |\
gz^c | ezd | d(d/c/)A/B/ |[1 Gz :|[2 Gzz ||
|:\
cf>c | e3 | Be>B | d3 |\
dAB | cEF |[1 G3- | Gzz :|[2 G3- | Gz |]


